X: 7
M: 2/4
L: 1/16
K: A
|:\
E2A2 A4 | E2B2 B4 | E2d2 c2BA | G2A2 B4 |\
E2A2 A4 | E2B2 B4 | E2d2 c2BA | c2^d2 e4 :|
|:\

